Font-Source/Egyptian2/svg-my/135B1.svg

<?xml version="1.0" encoding="UTF-8" standalone="no"?>
<svg
   width="1000"
   height="1000"
   version="1.1"
   id="svg1"
   sodipodi:docname="135B1.svg"
   inkscape:version="1.4.2 (f4327f4, 2025-05-13)"
   xmlns:inkscape="http://www.inkscape.org/namespaces/inkscape"
   xmlns:sodipodi="http://sodipodi.sourceforge.net/DTD/sodipodi-0.dtd"
   xmlns="http://www.w3.org/2000/svg"
   xmlns:svg="http://www.w3.org/2000/svg">
  <defs
     id="defs1" />
  <sodipodi:namedview
     id="namedview1"
     pagecolor="#ffffff"
     bordercolor="#666666"
     borderopacity="1.0"
     inkscape:showpageshadow="2"
     inkscape:pageopacity="0.0"
     inkscape:pagecheckerboard="0"
     inkscape:deskcolor="#d1d1d1"
     showguides="true"
     inkscape:zoom="4.270925"
     inkscape:cx="529.97887"
     inkscape:cy="202.64931"
     inkscape:window-width="1680"
     inkscape:window-height="998"
     inkscape:window-x="-8"
     inkscape:window-y="-8"
     inkscape:window-maximized="1"
     inkscape:current-layer="svg1" />
  <path
     id="path15"
     style="fill:#000000;stroke:none;stroke-width:56.2447"
     d="M 557.33398,0.09765625 C 504.40448,1.6208071 462.75004,15.831081 435.61523,89.408203 c -2.62475,14.248647 -8.98924,27.612517 -19.11328,39.986327 -10.12403,11.9989 -16.66435,25.25139 -19.66406,39.875 0,8.24922 5.20995,12.58792 15.70899,12.96289 5.24948,0.18786 8.23785,1.303 8.89843,3.07617 0.50114,1.7662 -1.12925,4.31089 -4.94336,7.58008 -7.2995,1.62207 -3.75254,8.85652 0,10.10742 -4.87456,5.24949 -4.87456,8.89082 0,10.76563 5.24948,2.24978 7.10159,5.95362 5.60157,11.20312 -1.12489,5.62447 -0.14217,12.51447 2.85742,20.76368 2.99969,8.62419 17.93226,12.96289 44.92968,12.96289 l 34.9336,-5.05469 c -1.49988,5.62446 -0.62859,12.33864 2.74609,20.21289 -67.49358,0.74991 -103.13201,20.2505 -126.00195,43.94141 -30.66107,31.76172 -60.59515,82.3563 -88.58203,139.07421 L 76.714844,220.1875 38.970703,262.96289 168.65234,392.64453 126.86719,502.80859 c 37.24488,24.53728 74.4304,49.16572 112.08008,73.08008 -77.30937,54.52144 -63.73572,81.46455 -124.38868,130.91016 -78.111517,19.41717 -116.2613762,44.329 -114.49999625,74.82226 0.40642384,7.03688 4.28471545,11.54127 11.45703125,13.48047 l -0.140625,-2.20312 3.521484,-0.24805 c -0.812904,-14.07134 23.730928,-29.2998 73.785157,-45.52734 l 2.419921,-0.17383 0.22461,4.75 c -15.335779,19.71324 -22.812217,32.40384 -22.496094,37.87695 l 8.525391,8.03321 c 3.909453,-0.22498 15.283653,-8.77217 43.083981,-29.99024 24.91193,-25.58395 26.15507,-25.87915 51.7168,-46.35547 82.93683,-66.4369 91.12523,-75.89731 116.67187,-114.80469 45.81572,27.03678 115.99447,65.72156 176.62696,74.88477 0.63171,2.19955 1.26778,4.41655 1.9082,6.65234 -96.2638,46.80264 -197.33725,112.1697 -250.9043,160.71485 -57.64978,38.67647 -71.92221,79.54087 -42.73242,122.5957 17.51385,38.67646 99.24248,34.72896 245.19141,-11.97461 109.46163,-47.43336 169.02504,-71.18555 178.51172,-71.18555 16.05436,20.43283 16.05436,47.76256 0,82.06055 -25.54104,9.48667 -35.13018,19.33439 -28.5625,29.55078 17.51391,0.73009 35.65909,-0.1909 54.26758,-2.74609 18.60848,-2.55407 32.40363,-26.19492 41.52539,-71.07422 9.12181,-44.87923 14.28426,-76.63565 15.3789,-95.24414 1.09396,-18.61186 -6.72563,-28.27029 -23.50976,-29 17.81622,-52.15286 5.26172,-108.3196 7.36132,-163.35156 -2.50175,-82.50464 24.16386,-157.62428 50.0918,-234.53516 h 2.19727 l 16.91797,23.72852 c 24.06962,66.19133 42.12147,110.11859 54.15625,131.93164 l -15.81836,109.41406 c -4.51307,85.74795 -9.34437,133.12425 -14.60938,142.15039 l 15.48828,48.55469 30.75977,4.5039 c 23.3174,-19.55655 34.93359,-37.95591 34.93359,-55.25586 l -19.11523,-65.47265 v -21.42188 c 21.81308,-91.01335 32.6269,-148.2724 32.62695,-171.58984 -1.3623,-51.78 -95.87592,-214.62768 -109.41406,-232.55859 -14.24868,-28.49728 -50.76339,-44.06275 -109.63281,-46.6875 -10.12404,-13.49872 -15.50802,-25.35839 -16.25782,-35.48243 69.44565,-18.42384 85.27482,-68.85121 86.01368,-135.00781 C 701.85359,56.367493 682.58225,27.547544 644.33594,14.048828 615.65117,3.9247913 586.65159,-0.74601406 557.33398,0.09765625 Z M 552.5,25.912109 c 18.07442,-0.380833 39.34195,2.176319 63.71484,7.800782 38.62146,8.624179 58.06643,33.038975 58.44141,73.160159 0.37684,39.74623 -10.85182,68.74198 -33.72461,87.11523 -22.49786,18.74822 -41.24755,20.07678 -56.24609,3.95313 -6.74936,-6.74936 -8.0789,-12.13321 -3.95313,-16.25782 10.87395,-3.37467 15.90818,-11.87629 15.1582,-25.375 11.62392,-14.24863 17.4668,-26.34861 17.4668,-36.47265 0.74974,-18.37312 -8.10134,-27.224522 -26.47461,-26.474612 -7.49927,0.74991 -13.86374,3.127352 -19.11328,7.251952 C 531.0232,76.240606 499.1947,65.47095 472.19727,68.095703 494.62125,28.660444 537.92768,26.219143 552.5,25.912109 Z m 4.06445,91.617191 -3.95507,11.20508 c 4.49955,2.62477 8.83831,3.43153 12.96289,2.30664 5.99945,-15.7485 12.71362,-23.61717 20.21289,-23.61719 8.99915,-1.12489 13.16397,3.38766 12.41406,13.51172 0,9.37411 -5.14527,19.90345 -15.26953,31.52734 0,11.99886 -3.35817,17.03496 -10.10742,15.16016 -6.74935,-1.49988 -9.58361,-5.31501 -8.45899,-11.31446 -4.49958,16.8734 -0.51072,38.27981 11.86524,64.15235 11.99884,26.2475 21.19788,46.32749 27.57226,60.20117 6.37443,13.87368 16.44661,21.21881 30.32031,21.96875 13.8737,0.74991 29.89625,2.77767 47.89453,6.15234 17.99829,3.37468 22.97694,15.63012 14.61133,36.58203 -39.94247,100.03681 -58.41895,184.40722 -63.93554,284.95704 -0.37121,0.0405 -0.49476,0.0683 -0.87891,0.11328 -35.66187,4.41239 -81.57825,19.92917 -130.50391,41.63476 -37.78722,-118.39254 -61.25096,-185.28133 -69.64648,-197.4082 -10.12404,-14.62361 -12.95854,-56.35031 -8.45899,-125.34375 -1.87479,-23.62276 17.50582,-35.48242 58.00196,-35.48242 41.99601,0 61.26726,-9.54674 57.89258,-28.66992 L 531.1875,262.0957 c -4.12462,-14.24864 -5.80266,-23.09993 -5.05273,-26.47461 -8.24922,-2.24978 -19.8237,-1.61686 -34.82227,1.75782 -25.49757,2.24978 -40.54145,1.09528 -45.04102,-3.4043 -4.49957,-4.49957 -6.0038,-10.69216 -4.5039,-18.56641 l 18.01562,-6.15039 c 4.12459,-2.24979 4.93135,-6.06689 2.30664,-11.3164 l -25.375,-2.19727 c 5.99943,-12.74879 5.30203,-21.25039 -2.19726,-25.375 -10.12407,0.74993 -15.16016,-1.7994 -15.16016,-7.79883 2.62475,-4.87454 7.83474,-13.90163 15.70899,-27.02539 22.83248,-38.054027 55.31002,-26.92583 62.94531,-23.61719 11.24893,4.49957 21.95409,8.02954 32.07812,10.6543 l 2.85547,-6.69922 c -9.37411,-2.24979 -19.09667,-6.06691 -29.2207,-11.3164 -19.49815,-10.124049 -36.39393,-10.124049 -50.64258,0 1.87481,-6.74937 4.42611,-11.783534 7.80078,-15.158207 24.12881,-6.186817 56.01054,-2.063293 95.68164,28.121097 z m -74.26172,-1.64649 c -9.37411,0 -15.56474,1.50421 -18.56445,4.50391 -2.62477,2.99969 -6.15667,4.50391 -10.65625,4.5039 v 5.05274 l 7.80078,1.09766 c 10.12403,10.12403 26.1466,11.45442 47.89453,3.95507 l 14.0625,3.95508 1.09766,-10.21679 -12.41211,-1.09766 C 499.52656,120.88747 489.80201,117.0077 482.30273,115.88281 Z M 197.99023,394.5957 423.10938,640.95508 C 349.49562,613.94451 251.92703,551.31766 161.16406,491.68164 Z m 186.58985,27.04883 5.22656,0.94727 c 0,24.37269 4.1572,51.18913 14.28125,68.4375 7.40532,12.61646 22.93947,59.30725 46.125,137.89843 L 346.9707,515.94336 c 14.47365,-29.40915 25.09126,-60.19894 37.60938,-94.29883 z m 247.5625,232.73633 c -4.68293,61.81518 17.72629,100.50953 -6.26172,150.60742 -51.08206,29.91951 -112.37762,48.50901 -183.89258,55.80664 -71.51498,7.29741 -132.18401,33.51951 -181.80664,78.76367 52.04261,-126.7702 71.64239,-146.75814 198.17383,-214.54297 61.29851,-32.83848 141.24047,-64.78104 173.78711,-70.63476 z"
     sodipodi:nodetypes="scccccccccccccscccccccscccccccccsccccccccccscccccccccccccccccccsssccccccccccscccccccccsssscccscsccccsccccccscccccccccccccccccccccccscccccsssc" />
</svg>

<?xml version="1.0" encoding="UTF-8" standalone="no"?>
<svg
   width="1000"
   height="1000"
   version="1.1"
   id="svg1"
   sodipodi:docname="135B1.svg"
   inkscape:version="1.4.2 (f4327f4, 2025-05-13)"
   xmlns:inkscape="http://www.inkscape.org/namespaces/inkscape"
   xmlns:sodipodi="http://sodipodi.sourceforge.net/DTD/sodipodi-0.dtd"
   xmlns="http://www.w3.org/2000/svg"
   xmlns:svg="http://www.w3.org/2000/svg">
  <defs
     id="defs1" />
  <sodipodi:namedview
     id="namedview1"
     pagecolor="#ffffff"
     bordercolor="#666666"
     borderopacity="1.0"
     inkscape:showpageshadow="2"
     inkscape:pageopacity="0.0"
     inkscape:pagecheckerboard="0"
     inkscape:deskcolor="#d1d1d1"
     showguides="true"
     inkscape:zoom="0.53386562"
     inkscape:cx="510.42807"
     inkscape:cy="714.5993"
     inkscape:window-width="1680"
     inkscape:window-height="998"
     inkscape:window-x="-8"
     inkscape:window-y="-8"
     inkscape:window-maximized="1"
     inkscape:current-layer="svg1" />
  <path
     id="path15"
     style="fill:#000000;stroke:none;stroke-width:56.2447"
     d="M 557.33398 0.09765625 C 547.56147 0.3788795 537.73539 1.3438924 527.89258 2.84375 C 485.89657 7.7182865 455.11337 36.538212 435.61523 89.408203 C 432.99048 103.65685 426.62599 117.02072 416.50195 129.39453 C 406.37792 141.39343 399.8376 154.64592 396.83789 169.26953 C 396.83789 177.51875 402.04784 181.85745 412.54688 182.23242 C 417.79636 182.42028 420.78473 183.53542 421.44531 185.30859 C 421.94645 187.07479 420.31606 189.61948 416.50195 192.88867 C 413.12727 193.63858 411.79673 195.31664 412.54688 197.94141 C 412.92203 200.56618 414.25216 202.24613 416.50195 202.99609 C 411.62739 208.24558 411.62739 211.88691 416.50195 213.76172 C 421.75143 216.0115 423.60354 219.71534 422.10352 224.96484 C 420.97863 230.58931 421.96135 237.47931 424.96094 245.72852 C 427.96063 254.35271 442.8932 258.69141 469.89062 258.69141 L 504.82422 253.63672 C 503.32434 259.26118 504.19563 265.97536 507.57031 273.84961 C 440.07673 274.59952 404.4383 294.10011 381.56836 317.79102 C 350.90729 349.55274 320.97321 400.14732 292.98633 456.86523 L 76.714844 220.1875 L 38.970703 262.96289 L 168.65234 392.64453 L 126.86719 502.80859 L 136.2832 509.00391 C 169.97421 531.16981 204.57157 554.16172 238.94727 575.88867 C 161.6379 630.41011 175.21155 657.35322 114.55859 706.79883 C 36.447073 726.216 -1.7027862 751.12783 0.05859375 781.62109 C 0.46501759 788.65797 4.3433092 793.16236 11.515625 795.10156 L 11.375 792.89844 L 14.896484 792.65039 C 14.08358 778.57905 38.627412 763.35059 88.681641 747.12305 L 91.101562 746.94922 L 91.326172 751.69922 C 75.990393 771.41246 68.513955 784.10306 68.830078 789.57617 L 77.355469 797.60938 C 81.264922 797.3844 92.639122 788.83721 120.43945 767.61914 C 145.35138 742.03519 146.59452 741.73999 172.15625 721.26367 C 255.09308 654.82677 263.28148 645.36636 288.82812 606.45898 C 352.43575 643.99512 413.33408 673.49359 464.07227 681.13477 L 465.45508 681.34375 C 466.08679 683.5433 466.72286 685.7603 467.36328 687.99609 C 371.09948 734.79873 270.02603 800.16579 216.45898 848.71094 C 158.8092 887.38741 144.53677 928.25181 173.72656 971.30664 C 191.24041 1009.9831 272.96904 1006.0356 418.91797 959.33203 C 528.3796 911.89867 587.94301 888.14648 597.42969 888.14648 C 613.48405 908.57931 613.48405 935.90904 597.42969 970.20703 C 571.88865 979.6937 562.29951 989.54142 568.86719 999.75781 C 586.3811 1000.4879 604.52628 999.56691 623.13477 997.01172 C 641.74325 994.45765 655.5384 970.8168 664.66016 925.9375 C 673.78197 881.05827 678.94442 849.30185 680.03906 830.69336 C 681.13302 812.0815 673.31343 802.42307 656.5293 801.69336 C 674.34552 749.5405 661.79102 693.37376 663.89062 638.3418 C 661.38887 555.83716 688.05448 480.71752 713.98242 403.80664 L 716.17969 403.80664 L 733.09766 427.53516 C 757.16728 493.72649 775.21913 537.65375 787.25391 559.4668 L 771.43555 668.88086 C 766.92248 754.62881 762.09118 802.00511 756.82617 811.03125 L 772.31445 859.58594 L 803.07422 864.08984 C 826.39162 844.53329 838.00781 826.13393 838.00781 808.83398 L 818.89258 743.36133 L 818.89258 721.93945 C 840.70566 630.9261 851.51948 573.66705 851.51953 550.34961 C 850.15723 498.56961 755.64361 335.72193 742.10547 317.79102 C 727.85679 289.29374 691.34208 273.72827 632.47266 271.10352 C 622.34862 257.6048 616.96464 245.74513 616.21484 235.62109 C 640.58745 229.99663 661.01331 217.26569 677.51172 197.39258 C 694.38511 177.51947 702.6035 145.23404 702.22852 100.61328 C 701.85359 56.367493 682.58225 27.547544 644.33594 14.048828 C 615.65117 3.9247913 586.65159 -0.74601406 557.33398 0.09765625 z M 552.5 25.912109 C 570.57442 25.531276 591.84195 28.088428 616.21484 33.712891 C 654.8363 42.33707 674.28127 66.751866 674.65625 106.87305 C 675.03309 146.61928 663.80443 175.61503 640.93164 193.98828 C 618.43378 212.7365 599.68409 214.06506 584.68555 197.94141 C 577.93619 191.19205 576.60665 185.8082 580.73242 181.68359 C 591.60637 178.30892 596.6406 169.8073 595.89062 156.30859 C 607.51454 142.05996 613.35742 129.95998 613.35742 119.83594 C 614.10716 101.46282 605.25608 92.611418 586.88281 93.361328 C 579.38354 94.111238 573.01907 96.48868 567.76953 100.61328 C 531.0232 76.240606 499.1947 65.47095 472.19727 68.095703 C 483.07124 48.972522 500.14088 36.132207 523.38867 29.757812 C 531.96598 27.367415 541.6553 26.140603 552.5 25.912109 z M 483.29297 86.990234 C 506.23121 87.693292 530.69176 97.843652 556.56445 117.5293 L 552.60938 128.73438 C 557.10893 131.35915 561.44769 132.16591 565.57227 131.04102 C 571.57172 115.29252 578.28589 107.42385 585.78516 107.42383 C 594.78431 106.29894 598.94913 110.81149 598.19922 120.93555 C 598.19922 130.30966 593.05395 140.839 582.92969 152.46289 C 582.92969 164.46175 579.57152 169.49785 572.82227 167.62305 C 566.07292 166.12317 563.23866 162.30804 564.36328 156.30859 C 559.8637 173.18199 563.85256 194.5884 576.22852 220.46094 C 588.22736 246.70844 597.4264 266.78843 603.80078 280.66211 C 610.17521 294.53579 620.24739 301.88092 634.12109 302.63086 C 647.99479 303.38077 664.01734 305.40853 682.01562 308.7832 C 700.01391 312.15788 704.99256 324.41332 696.62695 345.36523 C 656.68448 445.40204 638.208 529.77245 632.69141 630.32227 C 632.3202 630.36277 632.19665 630.39057 631.8125 630.43555 C 596.15063 634.84794 550.23425 650.36472 501.30859 672.07031 C 463.52137 553.67777 440.05763 486.78898 431.66211 474.66211 C 421.53807 460.0385 418.70357 418.3118 423.20312 349.31836 C 421.32833 325.6956 440.70894 313.83594 481.20508 313.83594 C 523.20109 313.83594 542.47234 304.2892 539.09766 285.16602 L 531.1875 262.0957 C 527.06288 247.84706 525.38484 238.99577 526.13477 235.62109 C 517.88555 233.37131 506.31107 234.00423 491.3125 237.37891 C 465.81493 239.62869 450.77105 238.47419 446.27148 233.97461 C 441.77191 229.47504 440.26768 223.28245 441.76758 215.4082 L 459.7832 209.25781 C 463.90779 207.00802 464.71455 203.19092 462.08984 197.94141 L 436.71484 195.74414 C 442.71427 182.99535 442.01687 174.49375 434.51758 170.36914 C 424.39351 171.11907 419.35742 168.56974 419.35742 162.57031 C 421.98217 157.69577 427.19216 148.66868 435.06641 135.54492 C 442.94067 122.42119 452.48935 114.02895 463.73828 110.2793 C 475.36218 106.52964 486.76279 107.05318 498.01172 111.92773 C 509.26065 116.4273 519.96581 119.95727 530.08984 122.58203 L 532.94531 115.88281 C 523.5712 113.63302 513.84864 109.8159 503.72461 104.56641 C 484.22646 94.442361 467.33068 94.442361 453.08203 104.56641 C 454.95684 97.81704 457.50814 92.782876 460.88281 89.408203 C 468.19461 87.5334 475.64689 86.755907 483.29297 86.990234 z M 482.30273 115.88281 C 472.92862 115.88281 466.73799 117.38702 463.73828 120.38672 C 461.11351 123.38641 457.58161 124.89063 453.08203 124.89062 L 453.08203 129.94336 L 460.88281 131.04102 C 471.00684 141.16505 487.02941 142.49544 508.77734 134.99609 L 522.83984 138.95117 L 523.9375 128.73438 L 511.52539 127.63672 C 499.52656 120.88747 489.80201 117.0077 482.30273 115.88281 z M 197.99023 394.5957 L 423.10938 640.95508 C 349.49562 613.94451 251.92703 551.31766 161.16406 491.68164 L 197.99023 394.5957 z M 384.58008 421.64453 L 389.80664 422.5918 C 389.80664 446.96449 393.96384 473.78093 404.08789 491.0293 C 411.49321 503.64576 427.02736 550.33655 450.21289 628.92773 L 346.9707 515.94336 C 361.44435 486.53421 372.06196 455.74442 384.58008 421.64453 z M 329.00195 541.84375 C 330.11467 542.17786 331.22876 542.56165 332.3418 542.76367 C 332.3488 542.75297 332.35483 542.74117 332.36133 542.73047 C 331.23675 542.46598 330.12008 542.14598 329.00195 541.84375 z M 307.4668 576.72461 C 307.69995 576.90609 307.93559 577.09073 308.17773 577.27734 C 308.18673 577.26644 308.19628 577.25504 308.20508 577.24414 C 308.00152 577.07141 307.78203 576.88578 307.66016 576.7793 C 307.59516 576.7609 307.5319 576.74261 307.4668 576.72461 z M 632.14258 654.38086 C 627.45965 716.19604 649.86887 754.89039 625.88086 804.98828 C 574.7988 834.90779 513.50324 853.49729 441.98828 860.79492 C 370.4733 868.09233 309.80427 894.31443 260.18164 939.55859 C 288.64172 870.23289 313.4995 825.42118 334.66211 804.98828 C 355.82466 784.5555 397.05696 757.85417 458.35547 725.01562 C 519.65398 692.17714 599.59594 660.23458 632.14258 654.38086 z " />
</svg>
